X: 19655
T: Jeg Ser Deg Sote Lam
R: waltz
M: 3/4
K: Dmajor
A,DE|F3 A GF|E3 G FE|D2 F2 A2|
B4 ^cB|A2 F3 A|G4 C2|D6:|
d|c3 A ce|d4 cB|A2 E FG|
F3 D d2|c3 A cd|d4 cB|A6||
A,DE|F3 A GF|E3 G FE|D2 F2 A2|
B4 ^cB|A2 F3 A|G4 C2|D6||

